X: 1
T: La Cochinchine
C: Trad
R: Hornpipe (Not Swung)
M: 4/4
L: 1/8
K: G
Z: ABC transcription by Verge Roller
r: 16
|: "G" d2 dd BGBd | "G" BGBd "D" dcAF | "G" d2 dd BGBd | "D" dcAF "G" G3 z :|
|: "Em" B2 BB GEGB | "Am" c2 cc "D" AFAc | "G" d2 dd BGBd | "D" dcAF "G" G3 z :|
